X: 36460
T: Second Wedding, The
R: reel
M: 4/4
K: Gmajor
B2 AG BGAF|G2 (3Bcd gedc|BG3 BcAG|FDFG AdcA|
B2 AG BGAF|G2 (3Bcd gedc|BG3 BcAG|FDEF G2|
Bd|g3 e fgaf|g2 bg afdf|g2 eg fgaf|bgef g2 Bd|
g3 e fgaf|g2 bg afdf|gbge fafd|(3efg fa gedc||

